X:1
T:Title
%%score { ( 1 3 ) | ( 2 4 ) }
L:1/8
Q:1/4=112
M:4/4
K:F
V:1 treble nm="Grand Piano"
V:3 treble 
V:2 bass 
V:4 bass 
V:1
 F3 C [=B,D]2 E2 | F2 A4 A2 | [Ec]3 [GB] [FA]2 [EG]2 | A6 z2 | F3 C [=B,D]2 E2 |[M:3/4] F2 A4 | %6
w: C.~Austin~Miles * * *||||||
[M:1/4] A2 |[M:4/4] G2 c2 [C^FA]2 [D=F=B]2 | [CEc]6 d2 | c6 z2 | c6 z2 | z2 [Dd]2 [Cc]2 [Dd]2 | %12
w: ||||||
[M:3/4] c2 B2 A2 |[M:1/4] C2 |[M:4/4] z4 z2 G2 | [CFAc]2 [CFAc]4 [CFA]2 | [CFAc]2 [CFAc]4 [A,CF]2 | %17
w: |||||
 [B,CE]6[K:treble] z2 | [CEG]2 [CEA]2 [CEB]2 A>G | [Dd]2 [DBd]4 [DBd]2 | [Ece]2 [Ece]4 [DBd]2 | %21
w: ||||
 [CAc]2 [FAc]2 [FG=B]2 [CEG_B]2 | [CFA]2 [CFA]2- [CFA]>A [CF_A]>[CF=A] | [CFAc]2 [CFAc]4 [CFA]2 | %24
w: |||
 [CFAc]4 [CFA]2 [CF]2 | [DBd]6[K:bass][K:treble] z2 | [Fd]2 [Ff]2 [Fe]2 [Fd]2 | %27
w: |||
 [Fc]2 [A,FA]2 [_A,F]2 [=B,FG]2 | A6 z2 | F6 z2 |] %30
w: |||
V:2
 [F,A,C]3 [F,A,] [G,,G,]2 [C,G,B,]2 | [F,A,]2 [F,A,C]4 [F,CF]2 | [C,C]3 [C,C] [C,C]2 [C,C]2 | %3
 [F,CF]6 z2 | [F,A,C]3 [F,A,] [G,,G,]2 [C,G,B,]2 |[M:3/4] [F,A,]2 [F,A,C]4 |[M:1/4] [^F,C_E]2 | %7
[M:4/4] [G,CE]2 [G,CE]2 D,2 G,2 | C,6[K:treble] B2 | B6[K:bass][K:treble] z2 | %10
 B6[K:bass][K:treble] z2 | c2[K:bass] C,2 C,2 C,2 |[M:3/4] [C,C]2 [B,,B,]2 [A,,A,]2 | %13
[M:1/4] [G,,G,]2 |[M:4/4] [F,,F,]2 [C,,C,]2 [F,,F,]2 [C,,C,]2 | %15
 [F,,F,]2 [C,,C,]2 [F,,F,]2 [C,,C,]2 | [F,,F,]2 [C,,C,]2 [F,,F,]2 [C,,C,]2 | %17
 [G,,G,]2 C,,2 G,,2 [C,,C,]2 | [G,,G,]2 [C,,C,]2 [G,,G,]2 [C,,C,]2 | %19
 [G,,G,]2 [C,,C,]2 [G,,G,]2 [C,,C,]2 | [G,,G,]2 [C,,C,]2 [G,,G,]2 [C,,C,]2 | %21
 [F,,F,]2 [C,,C,]2 [D,,D,]2 [E,,E,]2 | [F,,F,]2 [C,,C,]2 z z/ [CF]/ [C,,C,]2 | %23
 [F,,F,]2 [C,,C,]2 [F,,F,]2 [C,,C,]2 | [F,,F,]2 [C,,C,]2 [F,,F,]2 [C,,C,]2 | %25
 [B,,B,]2 F,,2 B,,2 [B,,B,]2 | [=B,,_A,]2 [B,,A,]2 [B,,A,]2 [B,,A,]2 | [C,A,]2 C,2 ^C,2 C,2 | %28
 C,2 C,2 C,2 C,2 | z2 B,2 A,2 z2 |] %30
V:3
 x8 | x8 | x8 | x8 | x8 |[M:3/4] x6 |[M:1/4] x2 |[M:4/4] x8 | x8 | z2 D2 C2 d2 | z2 D2 C2 d2 | x8 | %12
[M:3/4] x6 |[M:1/4] x2 |[M:4/4] [A,CF]2 [A,CG]2 [A,CA]2 [A,C]->[A,CF] | x8 | x8 | %17
 z2 C,2 G,2[K:treble] [B,C]2 | z4 z2 [CE]2 | x8 | x8 | x8 | x8 | x8 | x8 | %25
 z2[K:bass] F,2 B,2[K:treble] [Fd]2 | x8 | x8 | [CF]2 C2 [=B,D]2 [_B,EG]2 | A,2 D2 C2 z2 |] %30
V:4
 x8 | x8 | x8 | x8 | x8 |[M:3/4] x6 |[M:1/4] x2 |[M:4/4] x8 | x6[K:treble] x2 | %9
 z2[K:bass] C,2 C,2[K:treble] B2 | z2[K:bass] C,2 C,2[K:treble] B2 | x2[K:bass] x6 |[M:3/4] x6 | %13
[M:1/4] x2 |[M:4/4] x8 | x8 | x8 | x8 | x8 | x8 | x8 | x8 | z4 [F,,F,]2 z2 | x8 | x8 | x8 | x8 | %27
 x8 | x8 | F,6 z2 |] %30

